X: 26014
T: Mazurka D'Embrault
R: mazurka
M: 3/4
K: Cdorian
(3GA=B|c<G c>d e>g|f2 f>g f>d|e>c G>c e>c|d>=B G>B d>B|
c<G c>d e>g|f2 f>g f>d|e>c G>=B d>B|c<G c2:|
K:Cmaj
(3Gcd|e2 e>d c>B|A2 A>G d>e|f2 d>B d>f|e2 (3dcG c>d|
e2 e>d c>B|A2 A>G d>e|f2 d>B d>B|B>c c2:|

